src/assets/icons/weeks,simple,49.svg

<svg width="48" height="48" viewBox="0 0 48 48" fill="none" xmlns="http://www.w3.org/2000/svg">
<rect opacity="0.2" x="5" y="5" width="38" height="38" rx="4" fill="black"/>
<path d="M5 13C5 9.22876 5 7.34315 6.17157 6.17157C7.34315 5 9.22876 5 13 5H35C38.7712 5 40.6569 5 41.8284 6.17157C43 7.34315 43 9.22876 43 13V15H5V13Z" fill="black"/>
<path d="M9.09588 34.9318H17.4737V38H21.0021V34.9318H23.1669V31.9744H21.0021V20.5455H16.3828L9.09588 32.0256V34.9318ZM17.5419 31.9744H12.8118V31.8381L17.4055 24.5682H17.5419V31.9744ZM31.9411 20.3068C28.0376 20.2898 25.4041 22.8466 25.4212 26.358C25.4297 29.6136 27.6882 31.9744 30.782 31.9744C32.6996 31.9744 34.4041 31.0455 35.1797 29.5114H35.299C35.2905 32.9716 34.0888 35.0767 31.8132 35.0767C30.4751 35.0767 29.5121 34.3438 29.2308 33.0739H25.5916C25.9325 36.0142 28.3189 38.2386 31.8132 38.2386C36.1342 38.2386 38.9212 34.7443 38.9126 28.821C38.9041 22.4972 35.5291 20.3239 31.9411 20.3068ZM31.9666 23.2045C33.6626 23.2045 34.9155 24.5852 34.9325 26.2472C34.9411 27.9176 33.62 29.2983 31.9325 29.2983C30.228 29.2983 29.0092 27.9688 29.0007 26.2557C28.9837 24.5511 30.2536 23.2045 31.9666 23.2045Z" fill="black"/>
</svg>

<svg xmlns="http://www.w3.org/2000/svg" width="48" height="48" fill="none" viewBox="0 0 48 48">
  <rect width="38" height="38" x="5" y="5" fill="#000" opacity=".2" rx="4"/>
  <path fill="#000" d="M5 13c0-3.771 0-5.657 1.172-6.828C7.343 5 9.229 5 13 5h22c3.771 0 5.657 0 6.828 1.172C43 7.343 43 9.229 43 13v2H5v-2zM9.096 34.932h8.378V38h3.528v-3.068h2.165v-2.958h-2.165V20.546h-4.62l-7.286 11.48v2.906zm8.446-2.958h-4.73v-.136l4.594-7.27h.136v7.406zm14.4-11.667c-3.904-.017-6.538 2.54-6.52 6.051.008 3.256 2.266 5.616 5.36 5.616 1.918 0 3.622-.928 4.398-2.463h.119c-.008 3.46-1.21 5.566-3.486 5.566-1.338 0-2.3-.733-2.582-2.003h-3.64c.341 2.94 2.728 5.165 6.222 5.165 4.321 0 7.108-3.495 7.1-9.418-.009-6.324-3.384-8.497-6.972-8.514zm.025 2.898c1.696 0 2.949 1.38 2.965 3.042.01 1.67-1.312 3.051-3 3.051-1.704 0-2.923-1.33-2.931-3.042-.017-1.705 1.253-3.052 2.966-3.052z"/>
</svg>
